X: 1
T: The Beginning
C: Jackie Tolliday Bailey
M: 4/4
L: 1/8
K: Dmin
F2 A2 E2 A2 |  FEFG AGFA | F2 A2 E2 A2 | FEDE D4 | 
F2[A,A]2 E2 [A,A]2  |  FEFG AGFE | F2 A2 E2 A2 | DEFE D4  ||
defg afdA |  defg e2 A2 | defg afdA | defd e4 |
defg afdA | cAGE A4 | ABAG AFDA, | cAGF D4 |]

defg afdA | cAGE A4 | ABAG AFDA, | cAGF D4 |]

F2[A,A]2 E2 [A,A]2  |  FEFG AGFE | F2 A2 E2 A2 | DEFE D4  ||

